src/constants/images/landingIcons/icon-arrows.svg

<svg width="34" height="33" viewBox="0 0 34 33" fill="none" xmlns="http://www.w3.org/2000/svg">
<path d="M31.431 27.0762C31.431 27.3758 31.6703 27.6186 31.9655 27.6186C32.2607 27.6186 32.5 27.3758 32.5 27.0762C32.5 26.7767 32.2607 26.5339 31.9655 26.5339C31.6703 26.5339 31.431 26.7767 31.431 27.0762Z" fill="white"/>
<path d="M28.224 27.0762C28.224 27.3758 28.4633 27.6186 28.7585 27.6186C29.0537 27.6186 29.293 27.3758 29.293 27.0762C29.293 26.7767 29.0537 26.5339 28.7585 26.5339C28.4633 26.5339 28.224 26.7767 28.224 27.0762Z" fill="white"/>
<path d="M25.5521 27.0762C25.5521 27.3758 25.7914 27.6186 26.0866 27.6186C26.3818 27.6186 26.6211 27.3758 26.6211 27.0762C26.6211 26.7767 26.3818 26.5339 26.0866 26.5339C25.7914 26.5339 25.5521 26.7767 25.5521 27.0762Z" fill="white"/>
<path d="M23.4135 27.0762C23.4135 27.3758 23.6528 27.6186 23.9479 27.6186C24.2431 27.6186 24.4824 27.3758 24.4824 27.0762C24.4824 26.7767 24.2431 26.5339 23.9479 26.5339C23.6528 26.5339 23.4135 26.7767 23.4135 27.0762Z" fill="white"/>
<path d="M6.84473 32.5L1.4999 27.0763L6.84473 21.6525" stroke="white" stroke-width="1.08475"/>
<path d="M21.8105 27.0762L1.5002 27.0762" stroke="white" stroke-width="1.08475" stroke-linecap="round"/>
<path d="M1.50037 5.92372C1.50037 6.22326 1.73967 6.46609 2.03485 6.46609C2.33004 6.46609 2.56934 6.22326 2.56934 5.92372C2.56934 5.62418 2.33004 5.38135 2.03485 5.38135C1.73967 5.38135 1.50037 5.62418 1.50037 5.92372Z" fill="white"/>
<path d="M4.70643 5.92372C4.70643 6.22326 4.94572 6.46609 5.24091 6.46609C5.53609 6.46609 5.77539 6.22326 5.77539 5.92372C5.77539 5.62418 5.53609 5.38135 5.24091 5.38135C4.94572 5.38135 4.70643 5.62418 4.70643 5.92372Z" fill="white"/>
<path d="M7.37928 5.92372C7.37928 6.22326 7.61857 6.46609 7.91376 6.46609C8.20895 6.46609 8.44824 6.22326 8.44824 5.92372C8.44824 5.62418 8.20895 5.38135 7.91376 5.38135C7.61857 5.38135 7.37928 5.62418 7.37928 5.92372Z" fill="white"/>
<path d="M9.51697 5.92372C9.51697 6.22326 9.75627 6.46609 10.0515 6.46609C10.3466 6.46609 10.5859 6.22326 10.5859 5.92372C10.5859 5.62418 10.3466 5.38135 10.0515 5.38135C9.75627 5.38135 9.51697 5.62418 9.51697 5.92372Z" fill="white"/>
<path d="M27.1552 0.5L32.5 5.92373L27.1552 11.3475" stroke="white" stroke-width="1.08475"/>
<path d="M12.1897 5.92371L32.5 5.92371" stroke="white" stroke-width="1.08475" stroke-linecap="round"/>
</svg>

<svg width="34" height="33" fill="none" xmlns="http://www.w3.org/2000/svg"><path d="M31.431 27.076c0 .3.24.543.534.543a.538.538 0 00.535-.543c0-.3-.24-.542-.535-.542a.538.538 0 00-.534.542zM28.224 27.076c0 .3.24.543.535.543a.538.538 0 00.534-.543c0-.3-.24-.542-.534-.542a.538.538 0 00-.535.542zM25.552 27.076c0 .3.24.543.535.543a.538.538 0 00.534-.543c0-.3-.24-.542-.534-.542a.538.538 0 00-.535.542zM23.413 27.076c0 .3.24.543.535.543a.538.538 0 00.534-.543c0-.3-.239-.542-.534-.542a.538.538 0 00-.535.542z" fill="#fff"/><path d="M6.845 32.5L1.5 27.076l5.345-5.424" stroke="#fff" stroke-width="1.085"/><path d="M21.81 27.076H1.5" stroke="#fff" stroke-width="1.085" stroke-linecap="round"/><path d="M1.5 5.924c0 .3.24.542.535.542a.538.538 0 00.534-.542c0-.3-.239-.543-.534-.543a.538.538 0 00-.535.543zM4.706 5.924c0 .3.24.542.535.542a.538.538 0 00.534-.542c0-.3-.239-.543-.534-.543a.538.538 0 00-.535.543zM7.38 5.924c0 .3.239.542.534.542a.538.538 0 00.534-.542c0-.3-.24-.543-.534-.543a.538.538 0 00-.535.543zM9.517 5.924c0 .3.24.542.535.542a.538.538 0 00.534-.542c0-.3-.24-.543-.534-.543a.538.538 0 00-.535.543z" fill="#fff"/><path d="M27.155.5L32.5 5.924l-5.345 5.423" stroke="#fff" stroke-width="1.085"/><path d="M12.19 5.924H32.5" stroke="#fff" stroke-width="1.085" stroke-linecap="round"/></svg>
